public/img/svg/behance.svg

<svg width="36" height="24" viewBox="0 0 36 24" fill="none" xmlns="http://www.w3.org/2000/svg">
<path d="M10.441 0.5C11.5007 0.5 12.4543 0.591761 13.3287 0.778881C14.1977 0.964203 14.939 1.27007 15.5652 1.69289C16.1823 2.11571 16.6645 2.67707 17.0117 3.38237C17.3482 4.07868 17.5155 4.9495 17.5155 5.97866C17.5155 7.09419 17.2636 8.02619 16.7581 8.76927C16.2489 9.51416 15.4986 10.1241 14.4982 10.5955C15.8602 10.9895 16.8696 11.6786 17.5389 12.6574C18.2118 13.6452 18.5411 14.8273 18.5411 16.2127C18.5411 17.3372 18.327 18.3034 17.897 19.1149C17.4826 19.9142 16.8814 20.6018 16.1445 21.1192C15.3812 21.6507 14.5286 22.0408 13.6274 22.2707C12.6825 22.5188 11.7094 22.6433 10.7324 22.6414H0V0.5H10.441ZM9.80942 9.44579C10.6731 9.44579 11.3891 9.24067 11.9541 8.82505C12.5155 8.41483 12.7872 7.73832 12.7872 6.81171C12.7872 6.29713 12.6954 5.87251 12.5155 5.53965C12.3402 5.21942 12.0807 4.95315 11.7652 4.76958C11.4349 4.57369 11.0704 4.44242 10.691 4.38275C10.2776 4.30563 9.85757 4.26887 9.43698 4.27299H4.87592V9.44579H9.80942ZM10.0811 18.872C10.5615 18.872 11.0185 18.8306 11.4485 18.7334C11.8821 18.6399 12.2672 18.4887 12.5946 18.2638C12.9221 18.0479 13.192 17.7546 13.3863 17.3804C13.5824 17.0098 13.6778 16.5258 13.6778 15.9446C13.6778 14.8039 13.3557 13.9924 12.7188 13.5013C12.0801 13.0155 11.2236 12.7744 10.1747 12.7744H4.87592V18.8738H10.0811V18.872ZM25.4915 18.7982C26.1519 19.4423 27.1037 19.7662 28.3415 19.7662C29.2285 19.7662 29.995 19.5413 30.6409 19.0951C31.2779 18.6471 31.6665 18.1685 31.8158 17.6737H35.6932C35.0707 19.6025 34.1261 20.9807 32.8342 21.8101C31.5586 22.6432 30.0058 23.057 28.1922 23.057C26.9291 23.057 25.792 22.8537 24.7736 22.4506C23.7962 22.07 22.9128 21.4819 22.1845 20.727C21.4683 19.9544 20.9145 19.0458 20.5562 18.0551C20.1624 16.9596 19.9674 15.8025 19.9805 14.6384C19.9805 13.4401 20.1802 12.3192 20.5724 11.2846C20.9448 10.2846 21.5165 9.37064 22.2529 8.59835C22.9816 7.84267 23.8452 7.24712 24.851 6.80991C25.9086 6.3651 27.0467 6.14336 28.194 6.15859C29.5506 6.15859 30.7363 6.42128 31.7547 6.95025C32.7422 7.4552 33.5985 8.18335 34.2556 9.07694C34.9087 9.96397 35.3747 10.9805 35.6644 12.1194C35.9541 13.2566 36.0548 14.4441 35.9721 15.6873H24.4012C24.403 16.954 24.8294 18.1541 25.4915 18.7982ZM30.551 10.376C30.0274 9.79664 29.1422 9.48357 28.059 9.48357C27.3555 9.48357 26.7744 9.60052 26.3066 9.84162C25.8789 10.0577 25.4994 10.3582 25.1911 10.725C24.9203 11.0581 24.7196 11.4424 24.6009 11.855C24.4971 12.1989 24.4302 12.553 24.4012 12.9111H31.5657C31.4614 11.7884 31.0764 10.9589 30.551 10.376ZM23.5016 1.98617H32.478V4.17223H23.5016V1.98617Z" fill="#E3E4E6" fill-opacity="0.55"/>
</svg>

<svg width="36" height="24" fill="none" xmlns="http://www.w3.org/2000/svg"><path d="M10.441.5c1.06 0 2.013.092 2.888.279.869.185 1.61.491 2.236.914.617.423 1.1.984 1.447 1.69.336.696.503 1.566.503 2.596 0 1.115-.251 2.047-.757 2.79-.51.745-1.26 1.355-2.26 1.826 1.362.394 2.372 1.084 3.04 2.062.674.988 1.003 2.17 1.003 3.556 0 1.124-.214 2.09-.644 2.902a5.597 5.597 0 0 1-1.752 2.004 7.763 7.763 0 0 1-2.518 1.152c-.945.248-1.918.372-2.895.37H0V.5h10.441Zm-.632 8.946c.864 0 1.58-.205 2.145-.621.561-.41.833-1.087.833-2.013 0-.515-.092-.94-.272-1.272a2.005 2.005 0 0 0-.75-.77 3.028 3.028 0 0 0-1.074-.387 6.492 6.492 0 0 0-1.254-.11H4.876v5.173h4.933Zm.272 9.426c.48 0 .938-.041 1.367-.139a3.187 3.187 0 0 0 1.147-.47c.327-.215.597-.508.791-.883.196-.37.292-.854.292-1.435 0-1.141-.322-1.953-.96-2.444-.638-.486-1.494-.727-2.543-.727h-5.3v6.1h5.206v-.002Zm15.41-.074c.66.644 1.613.968 2.85.968.887 0 1.654-.225 2.3-.67.637-.449 1.026-.927 1.175-1.422h3.877c-.622 1.928-1.567 3.307-2.859 4.136-1.275.833-2.828 1.247-4.642 1.247-1.263 0-2.4-.203-3.418-.606a7.257 7.257 0 0 1-2.59-1.724 7.865 7.865 0 0 1-1.628-2.672 9.775 9.775 0 0 1-.576-3.417c0-1.198.2-2.319.592-3.353.373-1 .945-1.914 1.68-2.687a7.984 7.984 0 0 1 2.599-1.788 8.337 8.337 0 0 1 3.343-.651c1.357 0 2.542.262 3.56.791a7.138 7.138 0 0 1 2.502 2.127c.653.887 1.119 1.903 1.408 3.042.29 1.138.39 2.325.308 3.568h-11.57c.001 1.267.427 2.467 1.09 3.111Zm5.06-8.422c-.524-.58-1.409-.892-2.492-.892-.704 0-1.285.117-1.752.358a3.546 3.546 0 0 0-1.116.883c-.27.333-.471.717-.59 1.13-.104.344-.17.698-.2 1.056h7.165c-.105-1.123-.49-1.952-1.015-2.535Zm-7.05-8.39h8.977v2.186h-8.976V1.986Z" fill="#E3E4E6" fill-opacity=".55"/></svg>
